!!!COM:	Martini, Johannes
!!!CDT:	~1440///-~1497//
!!!OTL:	Dilexi quoniam
!!!AGN:	Motet
!!!SCT:	Mar2028
!!!SCA:	Mar2028
!!!voices:	2
**kern	**kern
*staff2	*staff1
*Ivox	*Ivox
*I"Tenor	*I"Superius
*I'T	*I'S
*>[A,B,C,D,E,F,G,H,I,J,K]	*>[A,B,C,D,E,F,G,H,I,J,K]
*>A	*>A
*clefGv2	*clefG2
*k[]	*k[]
*M2/1	*M2/1
*met(C)	*met(C)
!!section: Vocem orationis
!!!OMD: Vocem orationis
=1-	=1-
!!LO:TX:Z=8:t=Choir 1
1c	1a
1c	1a
=2	=2
1c	1a
2c\	2a/
2c\	2a/
=3	=3
2B\	2g/
2A/	2f/
1B	1g
=4	=4
0Al	0al
=5||	=5||
*>B	*>B
!!section: Quia inclinavit
!!!OMD: Quia inclinavit
!!LO:TX:Z=8:t=Choir 2
1A	1f
1B	1g
=6	=6
2c\	2a/
2c\	2a/
1c	1a
=7	=7
2A/	2a/
2B\	2g/
2c\	2a/
[2d\	[2b-i\
=8	=8
2d\]	2b-\]
2c\	1a
1B-i	.
.	2g/
=9	=9
1A	1a
1r	1r
=10	=10
2c\	2a/
2c\	2a/
2c\	2a/
2c\	2a/
=11	=11
2c\	2a/
2c\	2a/
1c	1a
=12	=12
2B\	2g/
2A/	2f/
1B	1g
=13	=13
0Al	0al
=14||	=14||
*>C	*>C
!!section: Circumdederunt
!!!OMD: Circumdederunt
!!LO:TX:Z=8:t=Choir 1
1A	1a
2c\	2a/
2c\	2a/
=15	=15
2c\	2a/
2c\	2a/
1c	1a
=16	=16
1c	1a
2c\	2a/
2c\	2a/
=17	=17
1c	1a
1A	1a
=18	=18
1r	1r
2c\	2a/
2c\	2a/
=19	=19
2c\	2a/
2c\	2a/
2c\	2a/
2c\	2a/
=20	=20
1c	1a
1c	1a
=21	=21
1B	1g
2.A/	2.f/
4B\	4g/
=22	=22
2c\	2a/
1d	1b-i
2c\	[2a/
=23	=23
1B-i	2a/]
.	2g/
1Al	1al
=24||	=24||
*>D	*>D
!!section: Tribulationem
!!!OMD: Tribulationem
!!LO:TX:Z=8:t=Choir 2
1A	1a
2c\	2a/
2c\	2a/
=25	=25
2c\	2a/
2c\	2a/
1c	1a
=26	=26
2A/	2a/
2B\	2g/
2c\	2a/
[2d\	[2b-i\
=27	=27
2d\]	2b-\]
2c\	1a
1B-i	.
.	2g/
=28	=28
1A	1a
1r	1r
=29	=29
1c	1a
2c\	2a/
2c\	2a/
=30	=30
2c\	2a/
2c\	2a/
1c	1a
=31	=31
2B\	2g/
2A/	2f/
1B	1g
=32	=32
1Al	1al
1r	1r
=33||	=33||
*>E	*>E
!!section: O Domine
!!!OMD: O Domine
!!LO:TX:Z=8:t=Choir 1
1A	1a
2c\	2a/
2c\	2a/
=34	=34
1c	1a
2c\	2a/
2c\	2a/
=35	=35
2c\	2a/
2c\	2a/
2B\	2g/
2G/	[2g/
=36	=36
1A	2g/]
.	2f#i/
1G	1g
=37	=37
1c	2r
.	2a/
2c\	2a/
2c\	2a/
=38	=38
1c	1a
1A	1a
=39	=39
2B\	2g/
2c\	2a/
2d\	2b\
2A/	[2a/
=40	=40
1B	2a/]
.	2g#i/
1A	1a
=41	=41
1r	1r
1c	1a
=42	=42
2c\	2a/
2c\	2a/
1c	1a
=43	=43
1c	1a
2B\	2g/
2A/	2f/
=44	=44
1B	1g
1Al	1al
=45||	=45||
*>F	*>F
!!section: Custodiens
!!!OMD: Custodiens
!!LO:TX:Z=8:t=Choir 2
1A	1a
2c\	2a/
2c\	2a/
=46	=46
1c	1a
2B\	2g/
2c\	2a/
=47	=47
2d\	2b\
2c\	1a
1B	.
.	2g#i/
=48	=48
1A	1a
1r	1r
=49	=49
1c	1a
2c\	2a/
2c\	2a/
=50	=50
2c\	2a/
2c\	2a/
1c	1a
=51	=51
1c	1a
2B\	2g/
2A/	2f/
=52	=52
2B\	2g/
2B\	2g/
1Al	1al
=53||	=53||
*>G	*>G
!!LO:TX:Z=8:t=Choir 1
!!section: Convertere
!!!OMD: Convertere
1A	1a
2c\	2a/
2c\	2a/
=54	=54
2c\	2a/
2c\	2a/
2c\	2a/
2c\	2a/
=55	=55
1c	1a
1c	1a
=56	=56
2c\	2a/
2c\	2a/
2c\	2a/
2c\	2a/
=57	=57
1c	1a
1A	1a
=58	=58
1r	1r
2c\	2a/
2c\	2a/
=59	=59
2c\	2a/
2c\	2a/
1c	1a
=60	=60
2c\	2a/
2c\	2a/
1B	1g
=61	=61
2A/	2f/
2G/	1b-i
2A/	.
2c\	[2a/
=62	=62
1B-i	2a/]
.	2g/
1Al	1al
=63||	=63||
*>H	*>H
!!LO:TX:Z=8:t=Choir 2
!!section: Quia eripuit
!!!OMD: Quia eripuit
1A	1a
2c\	2a/
2c\	2a/
=64	=64
2c\	2a/
2c\	2a/
1c	1a
=65	=65
2c\	2a/
2A/	2a/
2B\	2g/
2c\	2a/
=66	=66
2d\	2b\
2c\	1a
1B	.
.	2g#i/
=67	=67
1A	1a
1r	1r
=68	=68
2c\	2a/
2c\	2a/
2c\	2a/
2c\	2a/
=69	=69
2c\	2a/
2c\	2a/
2c\	2a/
2c\	2a/
=70	=70
1c	1a
2c\	2a/
2c\	2a/
=71	=71
1c	1a
2B\	2g/
2A/	2f/
=72	=72
1B	1g
1Al	1al
=73||	=73||
*>I	*>I
!!LO:TX:Z=8:t=Choir 1
!!section: Placebo Domino
!!!OMD: Placebo Domino
1A	1a
2c\	2a/
2c\	2a/
=74	=74
2c\	2a/
2c\	2a/
1c	1a
=75	=75
1r	1r
1c	1a
=76	=76
2c\	2a/
2c\	2a/
2c\	2a/
2B\	2g/
=77	=77
2.A/	2.f/
4B\	4g/
2c\	2a/
[2d\	[2b-i\
=78	=78
4d\]	4b-\]
4c\	4a/
2A/	1a
1B-i	.
.	2g/
=79	=79
1Al	1al
1r	1r
=80||	=80||
*>J	*>J
!!section: Gloria Patri
!!!OMD: Gloria Patri
!!LO:TX:Z=8:t=Choir 2
1c	1a
2c\	2a/
2c\	2a/
=81	=81
1c	1a
2c\	2a/
[2d\	[2b\
=82	=82
2d\]	2b\]
2c\	1a
1B	.
.	2g#i/
=83	=83
1A	1a
1r	1r
=84	=84
1c	1a
2c\	2a/
2c\	2a/
=85	=85
2B\	2g/
2A/	2f/
1B	1g
=86	=86
1Al	1al
1r	1r
=87||	=87||
*>K	*>K
!!section: Sicut erat
!!!OMD: Sicut erat
!!LO:TX:Z=8:t=Choir 1
2A/	2a/
2A/	2a/
2c\	2a/
2c\	2a/
=88	=88
2c\	2a/
2c\	2a/
2c\	2a/
2c\	2a/
=89	=89
1c	1a
1A	1a
=90	=90
2c\	2a/
2c\	2a/
1c	1a
=91	=91
1A	1a
1r	1r
=92	=92
2c\	2a/
2c\	2a/
2c\	2a/
2c\	2a/
=93	=93
1c	1a
2c\	2a/
2c\	2a/
=94	=94
2B\	2g/
2A/	2f/
1B	1g
=95	=95
0Al	0al
==	==
*-	*-
!!!RDF**kern: l=long note in original notation
!!!RDF**kern: i=editorial accidental
!!!ENC:	Chris Gage 02-09-2014
!!!END:	2014/10/05/
!!!EED:	Jesse Rodin
!!!EEV:	2014/10/17/
!!!ONB:	Translated from MusicXML and edited on 2014/10/17/ by Craig Sapp
!!muse2ps: C^@{COM}^i2I150v85,150Q16
